src/config/img/Reload.svg

<svg width="126" height="132" viewBox="0 0 126 132" fill="none" xmlns="http://www.w3.org/2000/svg">
<path d="M125.089 58.2558C124.664 55.6001 122.155 53.791 119.486 54.2147C116.818 54.6384 114.999 57.1348 115.425 59.7905C115.43 59.8196 115.435 59.8484 115.44 59.8772C120.423 89.0674 100.683 116.75 71.3491 121.709C42.0154 126.668 14.1964 107.024 9.21337 77.834C4.23033 48.6438 23.9707 20.9608 53.3041 16.0021C71.3437 12.9528 89.7055 19.2233 102.062 32.653L80.3851 39.84C77.8208 40.6891 76.434 43.4457 77.2869 45.9975C77.2872 45.9981 77.2875 45.9989 77.2878 45.9995C78.141 48.5513 80.9112 49.9313 83.4756 49.0826C83.4764 49.0823 83.477 49.082 83.4776 49.082L112.837 39.3435C114.836 38.681 116.184 36.8194 116.184 34.7227V5.50706C116.184 2.81774 113.993 0.637695 111.291 0.637695C108.588 0.637695 106.397 2.81774 106.397 5.50706V23.2943C81.1977 -0.556321 41.3394 0.43741 17.3714 25.5138C-6.59646 50.5901 -5.59813 90.2535 19.6018 114.104C44.8017 137.955 84.6597 136.962 108.628 111.885C122.295 97.5853 128.395 77.7144 125.089 58.2558Z" fill="#1DA1AF"/>
</svg>

<svg width="126" height="132" fill="none" xmlns="http://www.w3.org/2000/svg"><path d="M125.089 58.256c-.425-2.656-2.934-4.465-5.603-4.041-2.668.423-4.487 2.92-4.061 5.575l.015.087c4.983 29.19-14.757 56.873-44.09 61.832-29.335 4.959-57.154-14.685-62.137-43.875-4.983-29.19 14.758-56.873 44.091-61.832 18.04-3.05 36.401 3.221 48.758 16.651L80.385 39.84c-2.564.85-3.951 3.606-3.098 6.157V46c.854 2.552 3.624 3.932 6.189 3.084l.002-.001 29.359-9.739a4.872 4.872 0 0 0 3.347-4.62V5.507c0-2.69-2.191-4.87-4.893-4.87-2.703 0-4.894 2.18-4.894 4.87v17.787C81.197-.556 41.339.437 17.371 25.514c-23.967 25.076-22.97 64.74 2.23 88.59 25.2 23.851 65.059 22.858 89.027-2.219 13.667-14.3 19.767-34.17 16.461-53.63z" fill="#1DA1AF"/></svg>
